modules/open-iconic/icons/sort-ascending.svg

<svg xmlns="http://www.w3.org/2000/svg" width="8" height="8" viewBox="0 0 8 8">
  <path d="M2 0v6h-2l2.5 2 2.5-2h-2v-6h-1zm2 0v1h2v-1h-2zm0 2v1h3v-1h-3zm0 2v1h4v-1h-4z" />
</svg>

<svg xmlns="http://www.w3.org/2000/svg" width="8" height="8" viewBox="0 0 8 8"><path d="M2 0v6H0l2.5 2L5 6H3V0H2zm2 0v1h2V0H4zm0 2v1h3V2H4zm0 2v1h4V4H4z"/></svg>
